X:87
T:Gallopade. Le4.087
B:L.Leadley MS#4 c1850
Z:Village Music Project, 2016 Steve Mansfield
M:2/4
L:1/8
Q:2/4=50
N:* Bar line here in Mss
K:F
(3CDE | F2 GA | Bcde | ff/f/ ff | ec z2 |
dcba | (3g/a/g/ (3f/g/f/ "*"(3e/f/e/ (3d/e/d/ | c/=B/c/d/ B/c/d/B/ | fF :|
|: F z/f/ e z/d/ | c z/B/ A z/c/ | B z/G/ E z/d/ | c z/B/ A z/B/ |
c z/f/ e z/d/ | c z/B/ A z/c/ | B z/G/ Ed/c/ | G2 z2 ||
(3FGB e2 | (3g^f=f (3edc | (3Acf a2 | (3agf (3edc |
(3Bdf b2 | (3agf (3edc | (3Bba (3dag | f2 z2 ||
f3 e/d/ | c2A2 | G>dcB | AG F2 |
f3e/d/ | ce/g/ a2 | g>fe>e | f2 z2 !D.C.!:]

